X: 21060
T: Juniper
R: jig
M: 6/8
K: Amajor
|:e|"A"aga ecA|"D"FAd fed|"A"cee Acc|"E7"Bcd efg|
"A"aga ecA|"D"FAd fed|"A"cec "E7"dBG|"A"A3 A2:|
=G|"D"FAd fed|"D"fed agf|"A"ecA EAc|"A"EAc cBA|
"E7"GBB EBB|"E7"GBB E2B|"A"ABA "E7"BAB|"A"c3 AG=G|
"D"FAd fed|"D"fed agf|"A"ecA EAc|"A"EAc cBA|
"E7"GBB EBB|"E7"GBBE2f|"E7"gfe dcB|"A"A3 A2:|

